X:1009
T:Lads of Saltcoats
S:Book, Walsh Country Dances (1760)
N:Transposed from A for comparison
Z:Nigel Gatherer
L:1/8
M:4/4
K:G
G3 B AGAB | GEDE A/A/A A2 | G3 B AGAB | GEDE G/G/G G2 :|
de/f/ gB AGAB | de/f/ gB A/A/A A2 | de/f/ gB AGAB | GEDE G/G/G G2 :|
<end>
<start>
